X: 3008
T: BUCKS O' DROMORE
Q:"Reel."
R: Reel.
%R:reel
B: James Kerr "Merry Melodies" v.3 p.4 #8
Z: 2016 John Chambers <jc:trillian.mit.edu>
M: C
L: 1/8
K: D
|:\
d2(fd) edBA | d2(fd) efge |\
d2(fd) edBc | BdAF D2D2 ::\
FAFA d2d2 | FAFA (GE)E2 |\
FAFA d2d2 | BdAF E2D2 :|

%%sep 1 1 500
%%sep 1 1 500

